run/templates/normal/set_symbol/c20.svg

<?xml version="1.0" encoding="UTF-8" standalone="no"?>
<!-- Generated by IcoMoon.io -->

<svg
   version="1.1"
   width="32"
   height="30.313932"
   viewBox="0 0 32 30.313932"
   id="svg6"
   sodipodi:docname="c20.svg"
   inkscape:version="1.1.1 (3bf5ae0d25, 2021-09-20)"
   xmlns:inkscape="http://www.inkscape.org/namespaces/inkscape"
   xmlns:sodipodi="http://sodipodi.sourceforge.net/DTD/sodipodi-0.dtd"
   xmlns="http://www.w3.org/2000/svg"
   xmlns:svg="http://www.w3.org/2000/svg"
   xmlns:rdf="http://www.w3.org/1999/02/22-rdf-syntax-ns#"
   xmlns:cc="http://creativecommons.org/ns#"
   xmlns:dc="http://purl.org/dc/elements/1.1/">
  <defs
     id="defs10" />
  <sodipodi:namedview
     id="namedview8"
     pagecolor="#ffffff"
     bordercolor="#666666"
     borderopacity="1.0"
     inkscape:pageshadow="2"
     inkscape:pageopacity="0.0"
     inkscape:pagecheckerboard="0"
     showgrid="false"
     inkscape:zoom="16"
     inkscape:cx="11.46875"
     inkscape:cy="14.15625"
     inkscape:window-width="1920"
     inkscape:window-height="1009"
     inkscape:window-x="-8"
     inkscape:window-y="-8"
     inkscape:window-maximized="1"
     inkscape:current-layer="svg6" />
  <title
     id="title2">c20</title>
  <metadata
     id="metadata1470">
    <rdf:RDF>
      <cc:Work
         rdf:about="">
        <dc:title>c20</dc:title>
      </cc:Work>
    </rdf:RDF>
  </metadata>
  <path
     fill="#000000"
     d="m 15.980044,30.35787 c -0.13,-0.034 -0.256,-0.086 -0.377,-0.144 -1.32,-0.550999 -2.555,-1.29 -3.726,-2.107999 -0.497,-0.396001 -1.04,-0.746001 -1.462,-1.227001 0.774,-1.370999 1.326,-2.919 1.272,-4.513 0.072,-1.953 -0.676,-3.866 -1.8349999,-5.415 -0.002,0.015 -0.006,0.029 -0.005,0.044 0.044,0.616 0.073,1.536 -0.189,2.264 -0.235,0.822 -0.876,1.506 -1.674,1.809 0.201,-0.4 0.519,-0.839999 0.35,-1.306999 -0.253,-0.885001 -0.982,-1.496001 -1.549,-2.18 -1.6889996,-1.811001 -3.5669996,-3.452001 -5.0969996,-5.408 -0.292,-0.348001 -0.652,-0.831001 -0.86399995,-1.236001 -0.388,-0.747 -0.705,-1.3850002 -0.824000004326,-2.2260002 C 0.93404455,9.0098698 2.0600445,9.1608708 2.9150445,8.5708698 c 0.908,-0.604999 1.401,-1.609999 2.006,-2.482 0.786,-1.191999 1.6969996,-2.311999 2.7929996,-3.233999 1.3,-1.2860005 2.9339999,-2.18300046 4.6399999,-2.81000046 10e-4,0.016 0.005,0.032 0.003,0.049 -0.136,1.04899996 -0.095,2.13100046 0.04,3.19599946 0.195,1.540001 1.436,2.917001 2.987,3.026 0.515,0.011 0.31,0.014 0.616,0.006 0.205,0.009 0.411,-9.99e-4 0.616,-0.006 1.551,-0.108999 2.793,-1.486999 2.987,-3.026 0.135,-1.064999 0.176,-2.1469995 0.04,-3.19599946 -0.002,-0.016 0.002,-0.032 0.003,-0.049 l 0.319,0.121 c 1.603,0.612 3.079,1.50299996 4.321,2.68900046 1.096,0.922 2.007,2.043 2.793,3.234 0.605,0.872 1.098,1.877 2.006,2.481999 0.855,0.590001 1.98,0.439 2.915,0.14 -0.119,0.842 -0.436,1.4790002 -0.824,2.2260002 -0.212,0.405 -0.572,0.888 -0.864,1.236001 -1.53,1.955999 -3.408,3.596999 -5.097,5.408 -0.567,0.683999 -1.296,1.295 -1.549,2.178999 -0.169,0.467 0.149,0.907001 0.35,1.307 -0.799,-0.303 -1.439,-0.987 -1.674,-1.809 -0.262,-0.729 -0.234,-1.648 -0.189,-2.264 10e-4,-0.015 -0.003,-0.029 -0.005,-0.044 -1.159,1.549 -1.907,3.462 -1.835,5.415 -0.054,1.594 0.497,3.142 1.272,4.513 -0.422,0.481001 -0.964,0.831 -1.462,1.227 -1.17,0.818001 -2.406,1.557 -3.726,2.108 -0.098,0.05 -0.365,0.157 -0.394,0.145 l -0.021,-10e-4 z m 0.084,-21.3320002 c -0.044,0.004 -0.022,0.002 -0.064,0.006 v 0 l -0.031,-0.003 c -0.047,-0.011 -0.082,0.016 -0.122,0.035 -0.955,0.536001 -1.887,1.2580012 -2.697,1.9890002 -0.371,0.351001 -0.753,0.698001 -1.043,1.122 0.09,0.179 0.185,0.354 0.297,0.52 0.931,1.329 1.608,2.817 2.219,4.315 0.54,1.336 0.973,2.712001 1.377,4.094 0.39,-1.387 0.852,-2.751999 1.377,-4.094 0.612,-1.498 1.288,-2.986 2.219,-4.315 0.112,-0.166 0.207,-0.342 0.297,-0.52 -0.29,-0.425 -0.672,-0.771 -1.043,-1.122 -0.81,-0.732 -1.742,-1.4540002 -2.697,-1.9890002 -0.03,-0.013 -0.057,-0.03 -0.089,-0.038 z m 5.244,-3.810999 c -0.343,0.855 -0.932,1.584 -1.625,2.183 0.003,0.002 0.007,0.005 0.01,0.006 0.045,0.018 0.064,0.033 0.097,0.052 1.377,0.785999 2.939,1.970999 4.019,3.1249992 0.885,1.009 1.712,2.092001 2.272,3.318 0.118,0.242 0.237,0.460001 0.341,0.739 0.011,0.031 0.042,0.05 0.066,0.074 0.008,-0.018 0.016,-0.036 0.022,-0.055 0.234,-0.712 0.213,-1.492999 0.177,-2.199 -0.038,-0.756 -0.233,-1.54 -0.428,-2.345999 -0.679,-2.6130002 -2.348621,-5.0393892 -4.565621,-6.5803892 0,0 -0.103546,0.913235 -0.385379,1.683389 z m -11.03,-1.595 c -2.2159999,1.541999 -3.8589999,3.878999 -4.5379995,6.4920002 -0.195,0.805999 -0.39,1.589999 -0.428,2.345999 -0.036,0.705 -0.057,1.487 0.177,2.198 0.006,0.019 0.015,0.037 0.022,0.055 0.024,-0.024 0.055,-0.043 0.066,-0.074 0.104,-0.28 0.223,-0.497 0.3409996,-0.739 0.561,-1.226 1.387,-2.309 2.272,-3.318 1.08,-1.1539992 2.6419999,-2.3390002 4.0189999,-3.1249992 0.034,-0.019 0.052,-0.034 0.097,-0.052 0.004,-9.99e-4 0.007,-0.004 0.01,-0.006 -0.693,-0.599 -1.282,-1.327 -1.625,-2.183001 -0.291132,-0.786225 -0.413,-1.593999 -0.413,-1.593999 z"
     id="path4"
     style="fill:#000000;stroke:#000000;stroke-width:0;stroke-miterlimit:4;stroke-dasharray:none;stroke-opacity:1;fill-opacity:1"
     sodipodi:nodetypes="cccccccccccccccccccccccccccccccccccccccccccccccscccccccccccccccccccccccccccccccccccccccc" />
</svg>

<?xml version="1.0" encoding="UTF-8" standalone="no"?>
<!-- Generated by IcoMoon.io -->

<svg
   version="1.1"
   width="32"
   height="30.313932"
   viewBox="0 0 32 30.313932"
   id="svg6"
   sodipodi:docname="c20.svg"
   inkscape:version="1.1.1 (3bf5ae0d25, 2021-09-20)"
   xmlns:inkscape="http://www.inkscape.org/namespaces/inkscape"
   xmlns:sodipodi="http://sodipodi.sourceforge.net/DTD/sodipodi-0.dtd"
   xmlns="http://www.w3.org/2000/svg"
   xmlns:svg="http://www.w3.org/2000/svg">
  <defs
     id="defs10" />
  <sodipodi:namedview
     id="namedview8"
     pagecolor="#ffffff"
     bordercolor="#666666"
     borderopacity="1.0"
     inkscape:pageshadow="2"
     inkscape:pageopacity="0.0"
     inkscape:pagecheckerboard="0"
     showgrid="false"
     inkscape:zoom="25.75"
     inkscape:cx="15.980583"
     inkscape:cy="15.126214"
     inkscape:window-width="1920"
     inkscape:window-height="1009"
     inkscape:window-x="-8"
     inkscape:window-y="-8"
     inkscape:window-maximized="1"
     inkscape:current-layer="svg6" />
  <title
     id="title2">c20</title>
  <path
     fill="#000000"
     d="m 15.98,30.313 c -0.13,-0.034 -0.256,-0.086 -0.377,-0.144 -1.32,-0.551 -2.555,-1.29 -3.726,-2.108 -0.497,-0.396 -1.04,-0.746 -1.462,-1.227 0.774,-1.371 1.326,-2.919 1.272,-4.513 0.072,-1.953 -0.676,-3.866 -1.835,-5.415 -0.002,0.015 -0.006,0.029 -0.005,0.044 0.044,0.616 0.073,1.536 -0.189,2.264 -0.235,0.822 -0.876,1.506 -1.674,1.809 0.201,-0.4 0.519,-0.84 0.35,-1.307 C 8.081,18.831 7.352,18.22 6.785,17.536 5.096,15.725 3.218,14.084 1.688,12.128 1.396,11.78 1.036,11.297 0.824,10.892 0.436,10.145 0.119,9.507 0,8.666 0.934,8.965 2.06,9.116 2.915,8.526 3.823,7.921 4.316,6.916 4.921,6.044 5.707,4.852 6.618,3.732 7.714,2.81 9.014,1.524 10.648,0.627 12.354,0 c 0.001,0.016 0.005,0.032 0.003,0.049 -0.136,1.049 -0.095,2.131 0.04,3.196 0.195,1.54 1.436,2.917 2.987,3.026 0.515,0.011 0.31,0.014 0.616,0.006 0.205,0.009 0.411,-0.001 0.616,-0.006 C 18.167,6.162 19.409,4.784 19.603,3.245 19.738,2.18 19.779,1.098 19.643,0.049 19.641,0.033 19.645,0.017 19.646,0 l 0.319,0.121 c 1.603,0.612 3.079,1.503 4.321,2.689 1.096,0.922 2.007,2.043 2.793,3.234 0.605,0.872 1.098,1.877 2.006,2.482 0.855,0.59 1.98,0.439 2.915,0.14 -0.119,0.842 -0.436,1.479 -0.824,2.226 -0.212,0.405 -0.572,0.888 -0.864,1.236 -1.53,1.956 -3.408,3.597 -5.097,5.408 -0.567,0.684 -1.296,1.295 -1.549,2.179 -0.169,0.467 0.149,0.907 0.35,1.307 -0.799,-0.303 -1.439,-0.987 -1.674,-1.809 -0.262,-0.729 -0.234,-1.648 -0.189,-2.264 0.001,-0.015 -0.003,-0.029 -0.005,-0.044 -1.159,1.549 -1.907,3.462 -1.835,5.415 -0.054,1.594 0.497,3.142 1.272,4.513 -0.422,0.481 -0.964,0.831 -1.462,1.227 -1.17,0.818 -2.406,1.557 -3.726,2.108 -0.098,0.05 -0.365,0.157 -0.394,0.145 L 15.982,30.312 Z M 16.064,8.981 C 16.02,8.985 16.042,8.983 16,8.987 v 0 L 15.969,8.984 C 15.922,8.973 15.887,9 15.847,9.019 c -0.955,0.536 -1.887,1.258 -2.697,1.989 -0.371,0.351 -0.753,0.698 -1.043,1.122 0.09,0.179 0.185,0.354 0.297,0.52 0.931,1.329 1.608,2.817 2.219,4.315 0.54,1.336 0.973,2.712 1.377,4.094 0.39,-1.387 0.852,-2.752 1.377,-4.094 0.612,-1.498 1.288,-2.986 2.219,-4.315 0.112,-0.166 0.207,-0.342 0.297,-0.52 C 19.603,11.705 19.221,11.359 18.85,11.008 18.04,10.276 17.108,9.554 16.153,9.019 16.123,9.006 16.096,8.989 16.064,8.981 Z m 5.658,-5.406 v 0 c -0.126,0.535 -0.196,1.087 -0.414,1.595 -0.343,0.855 -0.932,1.584 -1.625,2.183 0.003,0.002 0.007,0.005 0.01,0.006 0.045,0.018 0.064,0.033 0.097,0.052 1.377,0.786 2.939,1.971 4.019,3.125 0.885,1.009 1.712,2.092 2.272,3.318 0.118,0.242 0.237,0.46 0.341,0.739 0.011,0.031 0.042,0.05 0.066,0.074 0.008,-0.018 0.016,-0.036 0.022,-0.055 0.234,-0.712 0.213,-1.493 0.177,-2.199 -0.038,-0.756 -0.233,-1.54 -0.428,-2.346 C 25.58,7.454 23.938,5.116 21.721,3.575 v 0 z m -11.444,0 C 8.062,5.117 6.419,7.454 5.74,10.067 5.545,10.873 5.35,11.657 5.312,12.413 5.276,13.118 5.255,13.9 5.489,14.611 5.495,14.63 5.504,14.648 5.511,14.666 5.535,14.642 5.566,14.623 5.577,14.592 5.681,14.312 5.8,14.095 5.918,13.853 6.479,12.627 7.305,11.544 8.19,10.535 9.27,9.381 10.832,8.196 12.209,7.41 12.243,7.391 12.261,7.376 12.306,7.358 12.31,7.357 12.313,7.354 12.316,7.352 11.623,6.753 11.034,6.025 10.691,5.169 10.473,4.661 10.403,4.109 10.277,3.574 v 0 z"
     id="path4" />
</svg>
